X:1
T:Pietas omnium
T:Pietas omnium
T:William Byrd
T:Source : Collection of Catches, Canons & Glees---London---Longman &Broderip---1762-1764. Editor : André Vierendeels (12/05/14).
T:Notes : Original clefs G2, G2, G2 Original note values have been halved Music selected by Thomas Warren Original notation up one fourth
T:Canon
C:William Byrd
%%score [ 1 2 3 ]
L:1/8
Q:1/4=120
M:4/4
K:C
V:1 treble-8 nm="Tenor 1" snm="T 1"
V:2 treble-8 nm="Tenor 2" snm="T 2"
V:3 treble-8 nm="Tenor 3" snm="T 3"
V:1
 G4 G2 G2 | CDEF G2 A2 | ^F2 G2 D4 | G2 B2 B2 B2 | c4 B2 A2- | AG G4 ^F2 | G2 d2 d2 d2 | %7
w: Pi- e- tas|o- * * * * mni-|um vir- tu-|tum pa- rens et|fun- da- men-||tum pa- rens et|
 e4 d2 c2- | cBAG A2 A2 | G4 G2 G2 | CDEF G2 A2 | ^F2 G2 D4 | G2 G2 G2 G2 | CDEF G2 A2 | %14
w: fun- da- men-|* * * * * tum,|pi- e- tas|o- * * * * mni-|um vir- tu-|tum,- pi- e- tas|o- * * * * mni-|
 ^F2 G2 D4 | G2 B2 B2 B2 | c4 B2 A2- | AG G4 ^F2 | G8 |] %19
w: um vir- tu-|tum pa- rens et|fun- da- men-||tum.|
V:2
 z8 | z8 | z8 | G4 G2 G2 | CDEF G2 A2 | ^F2 G2 D4 | G2 B2 B2 B2 | c4 B2 A2- | AG G4 ^F2 | %9
w: |||Pi- e- tas|o- * * * * mni-|um vir- tu-|tum pa- rens et|fun- da- men-||
 G2 d2 d2 d2 | e4 d2 c2- | cBAG A2 A2 | G2 d2 d2 d2 | e4 d2 c2- | cBAG A2 A2 | G4 G2 G2 | %16
w: tum pa- rens et|fun- da- men-|* * * * * tum|tum pa- rens et|fun da men-|* * * * * tum,|pi- e- tas|
 CDEF G2 A2 | ^F2 G2 D4 | G8 |] %19
w: o- * * * * mni-|um vir- tu-|tum.|
V:3
 z8 | z8 | z8 | z8 | z8 | z8 | G4 G2 G2 | CDEF G2 A2 | ^F2 G2 D4 | G2 B2 B2 B2 | c4 B2 A2- | %11
w: ||||||Pi- e- tas|o- * * * * mni-|um vir- tu-|tum pa- rens et|fun- da- men-|
 AG G4 ^F2 | G2 B2 B2 B2 | c4 B2 A2- | AG G4 ^F2 | G2 d2 d2 d2 | e4 d2 c2- | cBAG A4 | G8 |] %19
w: |tum pa- rens et|fun de man-||tum pa- rens et|fun- da men-||tum.|

